X:163
T:Old Joe
C:Rodney Miller
N:Version from Portland Collection
M:C|
L:1/8
K:C
|:"C" [c3E3] d cAGc | "F" A^GAB cBcd | "C" eg-ge "Am"ge  ag | "G7"eg  a_b aged |
"C" c2 cd  cAGc | "F" A^GAB  cBcd | "G" ega_b agea |  ge  dB "C" c4:|
"Am" A,4 C4 |  EA-A_E "E"DCA,G, | "Am"A,4  C4 | "F7"_E3E  DCA,G,|
"Am" A,2 A,2 C2 D2 | EA-A_E "F7" DCA,C | "C" G,2 c2 "F"cAGF | "G"EC  DB, "C"C4 :|
